assets/imgs/img/keyVisual_3.svg

<svg width="99" height="100" viewBox="0 0 99 100" fill="none" xmlns="http://www.w3.org/2000/svg">
<path d="M94.0109 54.6366V49.6696V44.7027V39.7357V34.7688H89.0629V29.8018V24.8349H84.115V19.8679V14.901H79.1671H74.2192V9.934H69.2712H64.3233V4.96704H59.3754H54.4275H49.4796H44.5316H39.5837H34.6358V9.934H29.6879H24.7399V14.901H19.792H14.8441V19.8679V24.8349H9.89617V29.8018V34.7688H4.94824V39.7357V44.7027V49.6696V54.6366V59.6036V64.5705H9.89617V69.5375V74.5044H14.8441V79.4714V84.4383H19.792H24.7399V89.4053H29.6879H34.6358V94.3722H39.5837H44.5316H49.4796H54.4275H59.3754H64.3233V89.4053H69.2712H74.2192V84.4383H79.1671H84.115V79.4714V74.5044H89.0629V69.5375V64.5705H94.0109V59.6036V54.6366Z" fill="#FFFF00"/>
<path d="M54.4279 0.00012207H49.48V4.96708H54.4279V0.00012207Z" fill="black"/>
<path d="M59.3752 0.00012207H54.4272V4.96708H59.3752V0.00012207Z" fill="black"/>
<path d="M64.3239 0.00012207H59.376V4.96708H64.3239V0.00012207Z" fill="black"/>
<path d="M69.2717 4.96704H64.3237V9.934H69.2717V4.96704Z" fill="black"/>
<path d="M74.2199 4.96704H69.272V9.934H74.2199V4.96704Z" fill="black"/>
<path d="M79.1676 9.93396H74.2197V14.9009H79.1676V9.93396Z" fill="black"/>
<path d="M84.1149 9.93396H79.167V14.9009H84.1149V9.93396Z" fill="black"/>
<path d="M89.0636 14.9011H84.1157V19.8681H89.0636V14.9011Z" fill="black"/>
<path d="M89.0636 19.868H84.1157V24.835H89.0636V19.868Z" fill="black"/>
<path d="M94.0114 24.835H89.0635V29.8019H94.0114V24.835Z" fill="black"/>
<path d="M94.0114 29.8018H89.0635V34.7687H94.0114V29.8018Z" fill="black"/>
<path d="M98.9587 34.7687H94.0107V39.7356H98.9587V34.7687Z" fill="black"/>
<path d="M98.9587 39.7358H94.0107V44.7028H98.9587V39.7358Z" fill="black"/>
<path d="M98.9587 44.7028H94.0107V49.6697H98.9587V44.7028Z" fill="black"/>
<path d="M44.5321 4.96704L49.48 4.96704V8.53539e-05L44.5321 8.53539e-05V4.96704Z" fill="black"/>
<path d="M39.5833 4.96704L44.5312 4.96704V8.53539e-05L39.5833 8.53539e-05V4.96704Z" fill="black"/>
<path d="M34.6356 4.96704L39.5835 4.96704V8.53539e-05L34.6356 8.53539e-05V4.96704Z" fill="black"/>
<path d="M29.6883 9.93384H34.6362V4.96688L29.6883 4.96688V9.93384Z" fill="black"/>
<path d="M24.7396 9.93384H29.6875V4.96688L24.7396 4.96688V9.93384Z" fill="black"/>
<path d="M19.7923 14.901H24.7402V9.93405H19.7923V14.901Z" fill="black"/>
<path d="M14.8446 14.901H19.7925V9.93405H14.8446V14.901Z" fill="black"/>
<path d="M9.8968 19.8679H14.8447V14.901H9.8968V19.8679Z" fill="black"/>
<path d="M9.8968 24.8348H14.8447V19.8679H9.8968V24.8348Z" fill="black"/>
<path d="M4.94856 29.8018H9.89648V24.8348H4.94856L4.94856 29.8018Z" fill="black"/>
<path d="M4.94856 34.7689H9.89648V29.802H4.94856L4.94856 34.7689Z" fill="black"/>
<path d="M-0.000169277 39.7358H4.94775L4.94775 34.7689H-0.000169277L-0.000169277 39.7358Z" fill="black"/>
<path d="M-0.000169277 44.7028H4.94775L4.94775 39.7358H-0.000169277L-0.000169277 44.7028Z" fill="black"/>
<path d="M-0.000169277 49.6697H4.94775L4.94775 44.7027H-0.000169277L-0.000169277 49.6697Z" fill="black"/>
<path d="M54.4279 94.3721H49.48V99.339H54.4279V94.3721Z" fill="black"/>
<path d="M59.3752 94.3721H54.4272V99.339H59.3752V94.3721Z" fill="black"/>
<path d="M64.3239 94.3721H59.376V99.339H64.3239V94.3721Z" fill="black"/>
<path d="M69.2717 89.4052H64.3237V94.3721H69.2717V89.4052Z" fill="black"/>
<path d="M74.2199 89.4052H69.272V94.3721H74.2199V89.4052Z" fill="black"/>
<path d="M79.1676 84.438H74.2197V89.4049H79.1676V84.438Z" fill="black"/>
<path d="M84.1149 84.438H79.167V89.4049H84.1149V84.438Z" fill="black"/>
<path d="M89.0636 79.4711H84.1157V84.438H89.0636V79.4711Z" fill="black"/>
<path d="M89.0636 74.5043H84.1157V79.4712H89.0636V74.5043Z" fill="black"/>
<path d="M94.0114 69.5374H89.0635V74.5043H94.0114V69.5374Z" fill="black"/>
<path d="M94.0114 64.5704H89.0635V69.5374H94.0114V64.5704Z" fill="black"/>
<path d="M98.9587 59.6033H94.0107V64.5702H98.9587V59.6033Z" fill="black"/>
<path d="M98.9587 54.6364H94.0107V59.6033H98.9587V54.6364Z" fill="black"/>
<path d="M98.9587 49.6694H94.0107V54.6364H98.9587V49.6694Z" fill="black"/>
<path d="M44.5321 99.339H49.48V94.372H44.5321V99.339Z" fill="black"/>
<path d="M39.5833 99.339H44.5312V94.372H39.5833V99.339Z" fill="black"/>
<path d="M34.6356 99.339H39.5835V94.372H34.6356V99.339Z" fill="black"/>
<path d="M29.6883 94.3721H34.6362V89.4051H29.6883V94.3721Z" fill="black"/>
<path d="M24.7396 94.3721H29.6875V89.4051H24.7396V94.3721Z" fill="black"/>
<path d="M19.7923 89.4052H24.7402V84.4382H19.7923V89.4052Z" fill="black"/>
<path d="M14.8446 89.4052H19.7925V84.4382H14.8446V89.4052Z" fill="black"/>
<path d="M9.8968 84.4382H14.8447V79.4713H9.8968V84.4382Z" fill="black"/>
<path d="M9.8968 79.4711H14.8447V74.5041H9.8968V79.4711Z" fill="black"/>
<path d="M4.94856 74.5042H9.89648V69.5372H4.94856L4.94856 74.5042Z" fill="black"/>
<path d="M4.94856 69.5372H9.89648V64.5703H4.94856L4.94856 69.5372Z" fill="black"/>
<path d="M-0.000169277 64.5703H4.94775L4.94775 59.6034H-0.000169277L-0.000169277 64.5703Z" fill="black"/>
<path d="M-0.000169277 59.6031H4.94775L4.94775 54.6362H-0.000169277L-0.000169277 59.6031Z" fill="black"/>
<path d="M-0.000169277 54.6364H4.94775L4.94775 49.6694H-0.000169277L-0.000169277 54.6364Z" fill="black"/>
<path d="M59.3757 39.7357H54.4277V44.7027H59.3757V39.7357Z" fill="black"/>
<path d="M44.5324 39.7357H39.5845V44.7027H44.5324V39.7357Z" fill="black"/>
<path d="M44.5324 54.6367H39.5845V59.6037H44.5324V54.6367Z" fill="black"/>
<path d="M49.4797 59.6036H44.5317V64.5706H49.4797V59.6036Z" fill="black"/>
<path d="M54.4284 59.6036H49.4805V64.5706H54.4284V59.6036Z" fill="black"/>
<path d="M59.3757 54.6367H54.4277V59.6037H59.3757V54.6367Z" fill="black"/>
</svg>

<svg xmlns="http://www.w3.org/2000/svg" width="99" height="100" fill="none" viewBox="0 0 99 100"><path fill="#ff0" d="M94.01 54.637V34.769h-4.947v-9.934h-4.948V14.9h-9.896V9.934h-9.896V4.967H34.636v4.967H24.74v4.967h-9.896v9.934H9.896v9.934H4.948V64.57h4.948v9.934h4.948v9.934h9.896v4.967h9.896v4.967h29.687v-4.967h9.896v-4.967h9.896v-9.934h4.948V64.57h4.948v-9.933"/><path fill="#000" d="M54.428 0H49.48v4.967h4.948z"/><path fill="#000" d="M59.375 0h-4.948v4.967h4.948zm4.949 0h-4.948v4.967h4.948zm4.948 4.967h-4.948v4.967h4.948zm4.948 0h-4.948v4.967h4.948zm4.948 4.967H74.22v4.967h4.948z"/><path fill="#000" d="M84.115 9.934h-4.948v4.967h4.948zm4.949 4.967h-4.948v4.967h4.948zm0 4.967h-4.948v4.967h4.948zm4.947 4.967h-4.947v4.967h4.947zm0 4.967h-4.947v4.967h4.947zm4.948 4.967H94.01v4.967h4.948zm0 4.967H94.01v4.967h4.948zm0 4.967H94.01v4.967h4.948zM44.532 4.967h4.948V0h-4.948zm-4.949 0h4.948V0h-4.948z"/><path fill="#000" d="M34.636 4.967h4.947V0h-4.947zm-4.948 4.967h4.948V4.967h-4.948zm-4.948 0h4.948V4.967H24.74zm-4.948 4.967h4.948V9.934h-4.948z"/><path fill="#000" d="M14.845 14.901h4.948V9.934h-4.948z"/><path fill="#000" d="M9.897 19.868h4.948V14.9H9.897zm0 4.967h4.948v-4.967H9.897zm-4.948 4.967h4.947v-4.967H4.95zm0 4.967h4.947v-4.967H4.95zM0 39.736h4.948v-4.967H0zm0 4.967h4.948v-4.967H0zm0 4.967h4.948v-4.967H0zm54.428 44.702H49.48v4.967h4.948z"/><path fill="#000" d="M59.375 94.372h-4.948v4.967h4.948zm4.949 0h-4.948v4.967h4.948zm4.948-4.967h-4.948v4.967h4.948zm4.948 0h-4.948v4.967h4.948zm4.948-4.967H74.22v4.967h4.948z"/><path fill="#000" d="M84.115 84.438h-4.948v4.967h4.948zm4.949-4.967h-4.948v4.967h4.948zm0-4.967h-4.948v4.967h4.948zm4.947-4.967h-4.947v4.967h4.947zm0-4.967h-4.947v4.967h4.947zm4.948-4.967H94.01v4.967h4.948zm0-4.967H94.01v4.967h4.948zm0-4.966H94.01v4.966h4.948zM44.532 99.339h4.948v-4.967h-4.948zm-4.949 0h4.948v-4.967h-4.948z"/><path fill="#000" d="M34.636 99.339h4.947v-4.967h-4.947zm-4.948-4.967h4.948v-4.967h-4.948zm-4.948 0h4.948v-4.967H24.74zm-4.948-4.967h4.948v-4.967h-4.948z"/><path fill="#000" d="M14.845 89.405h4.948v-4.967h-4.948zm-4.948-4.967h4.948v-4.967H9.897zm0-4.967h4.948v-4.967H9.897zm-4.948-4.967h4.947v-4.967H4.95zm0-4.967h4.947V64.57H4.95zM0 64.57h4.948v-4.967H0z"/><path fill="#000" d="M0 59.603h4.948v-4.967H0zm0-4.967h4.948V49.67H0zm59.376-14.9h-4.948v4.967h4.948zm-14.844 0h-4.947v4.967h4.947zm0 14.901h-4.947v4.967h4.947zm4.948 4.967h-4.948v4.967h4.948zm4.948 0h-4.947v4.967h4.947zm4.948-4.967h-4.948v4.967h4.948z"/></svg>
